packages/ffe-icons/icons/open/300/sm/arrows_more_down.svg

<svg xmlns="http://www.w3.org/2000/svg" height="20" viewBox="0 -960 960 960" width="20"><path d="M268.155-164.001q-13.665 0-22.909-9.245-9.245-9.244-9.245-22.909v-329.846q0-11.049 7.419-18.524Q250.838-552 261.804-552q10.966 0 18.581 7.475T288-526.001V-216h310.001q11.049 0 18.524 7.418Q624-201.164 624-190.198q0 10.966-7.475 18.581-7.475 7.616-18.524 7.616H268.155ZM440.154-336q-13.666 0-22.91-9.244T408-368.154v-329.845q0-11.05 7.418-18.525 7.418-7.475 18.384-7.475 10.966 0 18.581 7.475 7.616 7.475 7.616 18.525v310h310q11.05 0 18.525 7.419 7.475 7.418 7.475 18.384 0 10.966-7.475 18.581T769.999-336H440.154Z"/></svg>

<svg xmlns="http://www.w3.org/2000/svg" height="20" viewBox="0 -960 960 960" width="20"><path d="M268.16-164q-13.67 0-22.91-9.25-9.25-9.24-9.25-22.91V-526q0-11.05 7.42-18.53 7.42-7.47 18.38-7.47 10.97 0 18.58 7.47Q288-537.05 288-526v310h310q11.05 0 18.53 7.42 7.47 7.42 7.47 18.38 0 10.97-7.47 18.58Q609.05-164 598-164H268.16Zm171.99-172q-13.66 0-22.91-9.24-9.24-9.25-9.24-22.91V-698q0-11.05 7.42-18.52 7.42-7.48 18.38-7.48 10.97 0 18.58 7.48Q460-709.05 460-698v310h310q11.05 0 18.52 7.42 7.48 7.42 7.48 18.38 0 10.97-7.48 18.58Q781.05-336 770-336H440.15Z"/></svg>
